src/images/pages/dmt5_signals/easy_setup.svg

<svg width="69" height="64" viewBox="0 0 69 64" fill="none" xmlns="http://www.w3.org/2000/svg">
<g clip-path="url(#clip0)">
<path d="M34.7919 42.6087C34.4406 42.6087 34.0961 42.7424 33.8476 42.9749C33.5992 43.2074 33.4563 43.5299 33.4563 43.8587C33.4563 44.1874 33.5991 44.5099 33.8476 44.7424C34.0962 44.9749 34.4406 45.1087 34.7919 45.1087C35.1432 45.1087 35.4878 44.9749 35.7361 44.7424C35.9845 44.5099 36.1275 44.1874 36.1275 43.8587C36.1275 43.5299 35.9846 43.2074 35.7361 42.9749C35.4878 42.7424 35.1432 42.6087 34.7919 42.6087Z" fill="#2A3052"/>
<path d="M34.7919 28.7521C40.6835 28.7521 45.4768 24.2661 45.4768 18.7521C45.4768 13.2381 40.6835 8.75206 34.7919 8.75206C28.9002 8.75206 24.1069 13.2381 24.1069 18.7521C24.1069 24.2661 28.9002 28.7521 34.7919 28.7521ZM34.7919 11.2521C39.2106 11.2521 42.8056 14.6166 42.8056 18.7521C42.8056 22.8876 39.2106 26.2521 34.7919 26.2521C30.3731 26.2521 26.7782 22.8876 26.7782 18.7521C26.7782 14.6166 30.3731 11.2521 34.7919 11.2521Z" fill="#2A3052"/>
<path d="M63.3741 6.75H50.3025L46.4857 3.17788C46.2352 2.9435 45.8955 2.81175 45.5413 2.81175C45.1871 2.81175 44.8473 2.9435 44.5969 3.17788L43.1743 4.50938C42.0473 3.927 40.8594 3.46625 39.624 3.1325V1.25C39.624 0.559625 39.0259 0 38.2884 0H31.2955C30.558 0 29.9599 0.559625 29.9599 1.25V3.1325C28.7244 3.46625 27.5364 3.927 26.4095 4.50938L24.987 3.17788C24.7366 2.9435 24.3968 2.81175 24.0426 2.81175C23.6884 2.81175 23.3487 2.9435 23.0982 3.17788L19.2812 6.75H6.20969C3.11653 6.75 0.600098 9.10513 0.600098 12V47.25C0.600098 50.1449 3.11653 52.5 6.20969 52.5H28.5922V56.408C28.5922 58.5676 27.4258 60.5428 25.4719 61.6915C24.9679 61.9879 24.7343 62.5606 24.899 63.096C25.0636 63.6314 25.5871 64 26.1824 64H43.4014C43.9967 64 44.5201 63.6314 44.6848 63.096C44.8495 62.5606 44.6159 61.9879 44.1118 61.6915C42.1579 60.5428 40.9915 58.5676 40.9915 56.408V52.5H63.3741C66.4672 52.5 68.9837 50.1449 68.9837 47.25V12C68.9837 9.10513 66.4672 6.75 63.3741 6.75ZM24.0424 5.8295L25.2538 6.96338C25.6963 7.3775 26.387 7.44863 26.9151 7.13425C28.3534 6.27813 29.9246 5.66887 31.5855 5.32325C32.1964 5.196 32.6311 4.68888 32.6311 4.103V2.5H36.9528V4.103C36.9528 4.68888 37.3875 5.196 37.9984 5.32325C39.6593 5.66887 41.2305 6.27825 42.6688 7.13425C43.1966 7.4485 43.8873 7.37762 44.33 6.96338L45.5415 5.8295L48.5973 8.68962L47.3865 9.82288C46.944 10.2371 46.868 10.8835 47.2042 11.3778C48.1193 12.7239 48.7707 14.1946 49.1404 15.7491C49.2764 16.3209 49.8182 16.7276 50.4441 16.7276H52.1549V20.7722H50.4449C49.8189 20.7722 49.2769 21.1791 49.1411 21.7511C48.7716 23.3062 48.1204 24.7775 47.2055 26.124C46.8695 26.6182 46.9454 27.2645 47.3879 27.6787L48.5972 28.8105L45.5413 31.6705L44.3326 30.5392C43.8898 30.125 43.199 30.054 42.6712 30.3685C41.2324 31.2254 39.6602 31.8353 37.9984 32.1811C37.3875 32.3083 36.9528 32.8155 36.9528 33.4012V35H32.6311V33.4014C32.6311 32.8155 32.1964 32.3084 31.5855 32.1813C29.9237 31.8353 28.3515 31.2255 26.9127 30.3686C26.3848 30.0541 25.6941 30.1251 25.2513 30.5394L24.0426 31.6706L20.9867 28.8106L22.1959 27.6789C22.6384 27.2646 22.7144 26.6184 22.3784 26.1241C21.4634 24.7776 20.8121 23.3064 20.4428 21.7512C20.307 21.1792 19.765 20.7724 19.139 20.7724H17.4289V16.7278H19.1399C19.7658 16.7278 20.3077 16.321 20.4436 15.7493C20.8134 14.1946 21.4648 12.724 22.3799 11.3779C22.716 10.8836 22.64 10.2373 22.1975 9.823L20.9867 8.68975L24.0424 5.8295ZM40.0609 61.5H29.5229C30.6417 60.0416 31.2634 58.274 31.2634 56.408V52.5H38.3203V56.408C38.3203 58.274 38.942 60.0416 40.0609 61.5ZM63.3741 50H6.20969C4.58945 50 3.27133 48.7664 3.27133 47.25V45.1087H28.7994C29.5369 45.1087 30.135 44.5491 30.135 43.8587C30.135 43.1684 29.5369 42.6087 28.7994 42.6087H3.27133V12C3.27133 10.4836 4.58945 9.25 6.20969 9.25H17.9043C17.9669 9.36662 18.0491 9.47625 18.1532 9.5735L19.5752 10.9043C18.9525 11.959 18.4598 13.071 18.1031 14.2276H16.0932C15.3557 14.2276 14.7576 14.7872 14.7576 15.4776V22.0222C14.7576 22.7126 15.3557 23.2722 16.0932 23.2722H18.1017C18.4585 24.4294 18.9509 25.5419 19.5737 26.5971L18.1532 27.9265C17.6316 28.4146 17.6316 29.2061 18.1532 29.6944L23.0979 34.3221C23.6196 34.8102 24.465 34.8102 24.9869 34.3221L26.4066 32.9934C27.5343 33.5765 28.7232 34.0376 29.9599 34.3717V36.25C29.9599 36.9404 30.558 37.5 31.2955 37.5H38.2884C39.0259 37.5 39.624 36.9404 39.624 36.25V34.3717C40.8606 34.0378 42.0495 33.5765 43.1773 32.9934L44.597 34.3221C45.1187 34.8102 45.9642 34.8102 46.486 34.3221L51.4307 29.6944C51.9523 29.2062 51.9523 28.4148 51.4307 27.9265L50.0102 26.5971C50.6328 25.5419 51.1254 24.4294 51.4821 23.2722H53.4905C54.228 23.2722 54.8261 22.7126 54.8261 22.0222V15.4776C54.8261 14.7872 54.228 14.2276 53.4905 14.2276H51.4807C51.1238 13.0711 50.6312 11.9591 50.0086 10.9043L51.4306 9.5735C51.5345 9.47625 51.6169 9.36662 51.6794 9.25H63.3741C64.9943 9.25 66.3124 10.4836 66.3124 12V42.6087H40.8196C40.0821 42.6087 39.484 43.1684 39.484 43.8587C39.484 44.5491 40.0821 45.1087 40.8196 45.1087H66.3124V47.25C66.3124 48.7664 64.9943 50 63.3741 50Z" fill="#2A3052"/>
</g>
<defs>
<clipPath id="clip0">
<rect width="68.3836" height="64" fill="white" transform="translate(0.600098)"/>
</clipPath>
</defs>
</svg>

<svg width="69" height="64" fill="none" xmlns="http://www.w3.org/2000/svg"><g clip-path="url(#clip0)" fill="#2A3052"><path d="M34.792 42.609c-.351 0-.696.133-.944.366a1.22 1.22 0 00-.392.884c0 .328.143.65.392.883.248.233.593.367.944.367s.696-.134.944-.367a1.22 1.22 0 00.392-.883 1.22 1.22 0 00-.392-.884 1.393 1.393 0 00-.944-.366zM34.792 28.752c5.892 0 10.685-4.486 10.685-10s-4.793-10-10.685-10-10.685 4.486-10.685 10 4.793 10 10.685 10zm0-17.5c4.419 0 8.014 3.365 8.014 7.5 0 4.136-3.595 7.5-8.014 7.5-4.419 0-8.014-3.364-8.014-7.5 0-4.135 3.595-7.5 8.014-7.5z"/><path d="M63.374 6.75H50.302l-3.816-3.572a1.384 1.384 0 00-.945-.366c-.354 0-.694.131-.944.366l-1.423 1.331a17.886 17.886 0 00-3.55-1.377V1.25c0-.69-.598-1.25-1.336-1.25h-6.992c-.738 0-1.336.56-1.336 1.25v1.882a17.882 17.882 0 00-3.55 1.377l-1.423-1.331a1.383 1.383 0 00-.944-.366c-.355 0-.694.131-.945.366L19.281 6.75H6.21C3.117 6.75.6 9.105.6 12v35.25c0 2.895 2.517 5.25 5.61 5.25h22.382v3.908c0 2.16-1.166 4.135-3.12 5.283-.504.297-.738.87-.573 1.405.165.535.688.904 1.283.904h17.22c.595 0 1.118-.369 1.283-.904.164-.535-.07-1.108-.573-1.404-1.954-1.15-3.12-3.124-3.12-5.284V52.5h22.382c3.093 0 5.61-2.355 5.61-5.25V12c0-2.895-2.517-5.25-5.61-5.25zm-39.332-.92l1.212 1.133a1.405 1.405 0 001.661.171 15.135 15.135 0 014.67-1.81c.611-.128 1.046-.635 1.046-1.221V2.5h4.322v1.603c0 .586.434 1.093 1.045 1.22 1.661.346 3.233.955 4.67 1.811a1.405 1.405 0 001.662-.17l1.212-1.135 3.055 2.86-1.21 1.134a1.19 1.19 0 00-.183 1.555 13.176 13.176 0 011.936 4.371c.136.572.678.979 1.304.979h1.71v4.044h-1.71c-.625 0-1.167.407-1.303.98a13.18 13.18 0 01-1.935 4.372 1.19 1.19 0 00.182 1.555l1.21 1.132-3.057 2.86-1.208-1.132a1.405 1.405 0 00-1.662-.17 15.133 15.133 0 01-4.673 1.812c-.61.127-1.045.635-1.045 1.22V35H32.63v-1.599c0-.586-.435-1.093-1.046-1.22a15.139 15.139 0 01-4.672-1.812 1.405 1.405 0 00-1.662.17l-1.208 1.132-3.056-2.86 1.209-1.132a1.19 1.19 0 00.182-1.555 13.174 13.174 0 01-1.935-4.373c-.136-.572-.678-.979-1.304-.979h-1.71v-4.044h1.71c.627 0 1.169-.407 1.305-.979a13.177 13.177 0 011.936-4.371 1.19 1.19 0 00-.182-1.555L20.987 8.69l3.055-2.86zM40.061 61.5H29.523a8.331 8.331 0 001.74-5.092V52.5h7.057v3.908a8.33 8.33 0 001.74 5.092zM63.374 50H6.21c-1.62 0-2.939-1.234-2.939-2.75v-2.141H28.8c.738 0 1.336-.56 1.336-1.25s-.598-1.25-1.336-1.25H3.271V12c0-1.516 1.318-2.75 2.939-2.75h11.694c.063.117.145.226.25.323l1.421 1.331a15.534 15.534 0 00-1.472 3.324h-2.01c-.737 0-1.335.56-1.335 1.25v6.544c0 .69.598 1.25 1.335 1.25h2.009c.357 1.157.849 2.27 1.472 3.325l-1.42 1.33a1.194 1.194 0 000 1.767l4.944 4.628a1.401 1.401 0 001.889 0l1.42-1.329a17.88 17.88 0 003.553 1.379v1.878c0 .69.598 1.25 1.335 1.25h6.993c.738 0 1.336-.56 1.336-1.25v-1.878a17.873 17.873 0 003.553-1.379l1.42 1.33a1.401 1.401 0 001.889 0l4.945-4.629a1.194 1.194 0 000-1.767l-1.42-1.33a15.548 15.548 0 001.471-3.325h2.008c.738 0 1.336-.56 1.336-1.25v-6.544c0-.69-.598-1.25-1.336-1.25h-2.01a15.553 15.553 0 00-1.471-3.324l1.422-1.33c.104-.098.186-.207.248-.324h11.695c1.62 0 2.938 1.234 2.938 2.75v30.609H40.82c-.738 0-1.336.56-1.336 1.25s.598 1.25 1.336 1.25h25.492v2.141c0 1.516-1.318 2.75-2.938 2.75z"/></g><defs><clipPath id="clip0"><path fill="#fff" transform="translate(.6)" d="M0 0h68.384v64H0z"/></clipPath></defs></svg>
